; G-Code generated by Simplify3D(R) Version 4.1.2
; Mar 20, 2020 at 10:58:07 AM
; Settings Summary
;   processName,Process1
;   applyToModels,Nose Piece 21,Nose Piece 21(2),Nose Piece 21(3),Nose Piece 21(4),Nose Piece 21(5)
;   profileName,ABS-Taz5- 0.4mm Nose Piece 4 (modified)
;   profileVersion,2020-03-19 17:03:10
;   baseProfile,LulzBot TAZ 5 (modified)
;   printMaterial,ABS
;   printQuality,High
;   printExtruders,
;   extruderName,Primary Extruder
;   extruderToolheadNumber,0
;   extruderDiameter,0.4
;   extruderAutoWidth,1
;   extruderWidth,0.48
;   extrusionMultiplier,0.95
;   extruderUseRetract,1
;   extruderRetractionDistance,1
;   extruderExtraRestartDistance,0
;   extruderRetractionZLift,0
;   extruderRetractionSpeed,1602
;   extruderUseCoasting,1
;   extruderCoastingDistance,0.1
;   extruderUseWipe,1
;   extruderWipeDistance,0.1
;   primaryExtruder,0
;   layerHeight,0.25
;   topSolidLayers,5
;   bottomSolidLayers,4
;   perimeterOutlines,2
;   printPerimetersInsideOut,1
;   startPointOption,2
;   startPointOriginX,0
;   startPointOriginY,0
;   sequentialIslands,0
;   spiralVaseMode,0
;   firstLayerHeightPercentage,130
;   firstLayerWidthPercentage,110
;   firstLayerUnderspeed,0.7
;   useRaft,0
;   raftExtruder,0
;   raftTopLayers,3
;   raftBaseLayers,2
;   raftOffset,5
;   raftSeparationDistance,0.1
;   raftTopInfill,100
;   aboveRaftSpeedMultiplier,0.3
;   useSkirt,1
;   skirtExtruder,0
;   skirtLayers,1
;   skirtOutlines,1
;   skirtOffset,0.5
;   usePrimePillar,0
;   primePillarExtruder,999
;   primePillarWidth,12
;   primePillarLocation,7
;   primePillarSpeedMultiplier,1
;   useOozeShield,0
;   oozeShieldExtruder,999
;   oozeShieldOffset,2
;   oozeShieldOutlines,1
;   oozeShieldSidewallShape,1
;   oozeShieldSidewallAngle,30
;   oozeShieldSpeedMultiplier,1
;   infillExtruder,0
;   internalInfillPattern,Rectilinear
;   externalInfillPattern,Rectilinear
;   infillPercentage,100
;   outlineOverlapPercentage,10
;   infillExtrusionWidthPercentage,100
;   minInfillLength,1.2
;   infillLayerInterval,1
;   internalInfillAngles,45,-45
;   overlapInternalInfillAngles,0
;   externalInfillAngles,0,90
;   generateSupport,0
;   supportExtruder,0
;   supportInfillPercentage,25
;   supportExtraInflation,0
;   supportBaseLayers,0
;   denseSupportExtruder,0
;   denseSupportLayers,0
;   denseSupportInfillPercentage,70
;   supportLayerInterval,1
;   supportHorizontalPartOffset,0.05
;   supportUpperSeparationLayers,1
;   supportLowerSeparationLayers,0
;   supportType,0
;   supportGridSpacing,4
;   maxOverhangAngle,0
;   supportAngles,90
;   temperatureName,Primary Extruder,Heated Bed
;   temperatureNumber,0,1
;   temperatureSetpointCount,1,1
;   temperatureSetpointLayers,1,1
;   temperatureSetpointTemperatures,240,110
;   temperatureStabilizeAtStartup,1,1
;   temperatureHeatedBed,0,1
;   fanLayers,1
;   fanSpeeds,0
;   blipFanToFullPower,1
;   adjustSpeedForCooling,1
;   minSpeedLayerTime,15
;   minCoolingSpeedSlowdown,20
;   increaseFanForCooling,1
;   minFanLayerTime,45
;   maxCoolingFanSpeed,100
;   increaseFanForBridging,1
;   bridgingFanSpeed,100
;   use5D,1
;   relativeEdistances,1
;   allowEaxisZeroing,1
;   independentExtruderAxes,0
;   includeM10123,0
;   stickySupport,1
;   applyToolheadOffsets,0
;   gcodeXoffset,0
;   gcodeYoffset,0
;   gcodeZoffset,0
;   overrideMachineDefinition,1
;   machineTypeOverride,0
;   strokeXoverride,298
;   strokeYoverride,275
;   strokeZoverride,250
;   originOffsetXoverride,0
;   originOffsetYoverride,0
;   originOffsetZoverride,0
;   homeXdirOverride,-1
;   homeYdirOverride,-1
;   homeZdirOverride,-1
;   flipXoverride,1
;   flipYoverride,-1
;   flipZoverride,1
;   toolheadOffsets,0,0|0,0|0,0|0,0|0,0|0,0
;   overrideFirmwareConfiguration,1
;   firmwareTypeOverride,RepRap (Marlin/Repetier/Sprinter)
;   GPXconfigOverride,r2
;   baudRateOverride,115200
;   overridePrinterModels,1
;   printerModelsOverride,LulzBot_TAZ3.stl
;   startingGcode,G28 ; home all axes
;   layerChangeGcode,
;   retractionGcode,
;   toolChangeGcode,
;   endingGcode,M104 S0 ; turn off extruder,M140 S0 ; turn off bed,M107 S0 ; turn off cooling fans,G01 X10 ; Send x axis,M84 ; disable motors,
;   exportFileFormat,gcode
;   celebration,0
;   celebrationSong,Random Song
;   postProcessing,
;   defaultSpeed,2400
;   outlineUnderspeed,1
;   solidInfillUnderspeed,1
;   supportUnderspeed,1
;   rapidXYspeed,3102
;   rapidZspeed,1002
;   minBridgingArea,50
;   bridgingExtraInflation,0
;   bridgingExtrusionMultiplier,0.9
;   bridgingSpeedMultiplier,1.05
;   useFixedBridgingAngle,0
;   fixedBridgingAngle,0
;   applyBridgingToPerimeters,0
;   filamentDiameters,2.85|3|3|3|3|3
;   filamentPricesPerKg,46|46|46|46|46|46
;   filamentDensities,1.25|1.25|1.25|1.25|1.25|1.25
;   useMinPrintHeight,0
;   minPrintHeight,0
;   useMaxPrintHeight,0
;   maxPrintHeight,0
;   useDiaphragm,0
;   diaphragmLayerInterval,20
;   robustSlicing,1
;   mergeAllIntoSolid,0
;   onlyRetractWhenCrossingOutline,0
;   retractBetweenLayers,1
;   useRetractionMinTravel,0
;   retractionMinTravel,2
;   retractWhileWiping,0
;   onlyWipeOutlines,0
;   avoidCrossingOutline,0
;   maxMovementDetourFactor,3
;   toolChangeRetractionDistance,12
;   toolChangeExtraRestartDistance,-0.5
;   toolChangeRetractionSpeed,600
;   externalThinWallType,0
;   internalThinWallType,1
;   thinWallAllowedOverlapPercentage,50
;   singleExtrusionMinLength,0.6
;   singleExtrusionMinPrintingWidthPercentage,75
;   singleExtrusionMaxPrintingWidthPercentage,125
;   singleExtrusionEndpointExtension,0.2
;   horizontalSizeCompensation,0
G90
M83
M106 S0
M140 S110
M190 S110
M104 S240 T0
M109 S240 T0
G28 ; home all axes
; process Process1
; layer 1, Z = 0.325
T0
G1 E-1.0000 F1602
; feature skirt
; tool H0.325 W0.528
G1 Z0.325 F1002
G1 X77.826 Y11.135 F3102
G1 E1.0000 F1602
G1 X77.849 Y11.003 E0.0034 F1680
G1 X77.951 Y10.725 E0.0076
G1 X78.017 Y10.609 E0.0034
G1 X78.208 Y10.383 E0.0076
G1 X78.310 Y10.297 E0.0034
G1 X78.566 Y10.149 E0.0076
G1 X78.692 Y10.103 E0.0034
G1 X78.983 Y10.052 E0.0076
G1 X79.117 Y10.052 E0.0034
G1 X79.425 Y10.106 E0.0080
G1 X79.580 Y10.170 E0.0043
G1 X79.901 Y10.396 E0.0100
G1 X79.993 Y10.488 E0.0033
G1 X80.959 Y11.843 E0.0425
G1 X80.965 Y11.853 E0.0003
G1 X82.202 Y13.713 E0.0571
G1 X82.210 Y13.725 E0.0004
G1 X83.375 Y15.632 E0.0571
G1 X83.383 Y15.644 E0.0004
G1 X84.475 Y17.592 E0.0571
G1 X84.480 Y17.601 E0.0003
G1 X85.000 Y18.594 E0.0286
G1 X85.005 Y18.604 E0.0003
G1 X85.985 Y20.610 E0.0571
G1 X85.991 Y20.623 E0.0004
G1 X86.894 Y22.667 E0.0571
G1 X86.900 Y22.680 E0.0004
G1 X87.726 Y24.757 E0.0571
G1 X87.731 Y24.770 E0.0004
G1 X88.477 Y26.877 E0.0571
G1 X88.482 Y26.890 E0.0004
G1 X89.148 Y29.023 E0.0571
G1 X89.152 Y29.037 E0.0004
G1 X89.738 Y31.194 E0.0571
G1 X89.741 Y31.208 E0.0004
G1 X90.244 Y33.385 E0.0571
G1 X90.247 Y33.399 E0.0004
G1 X90.480 Y34.614 E0.0316
G1 X90.713 Y33.399 E0.0316
G1 X90.716 Y33.385 E0.0004
G1 X91.219 Y31.208 E0.0571
G1 X91.222 Y31.194 E0.0004
G1 X91.808 Y29.037 E0.0571
G1 X91.812 Y29.023 E0.0004
G1 X92.478 Y26.890 E0.0571
G1 X92.483 Y26.877 E0.0004
G1 X93.229 Y24.772 E0.0571
G1 X93.232 Y24.762 E0.0003
G1 X93.637 Y23.716 E0.0286
G1 X93.641 Y23.706 E0.0003
G1 X94.505 Y21.648 E0.0571
G1 X94.511 Y21.634 E0.0004
G1 X95.453 Y19.608 E0.0571
G1 X95.459 Y19.595 E0.0004
G1 X96.478 Y17.606 E0.0571
G1 X96.484 Y17.593 E0.0004
G1 X97.577 Y15.644 E0.0571
G1 X97.585 Y15.632 E0.0004
G1 X98.750 Y13.725 E0.0571
G1 X98.758 Y13.713 E0.0004
G1 X99.995 Y11.853 E0.0571
G1 X100.001 Y11.843 E0.0003
G1 X100.968 Y10.486 E0.0426
G1 X101.061 Y10.394 E0.0033
G1 X101.394 Y10.160 E0.0104
G1 X101.584 Y10.091 E0.0051
G1 X102.025 Y10.053 E0.0113
G1 X102.223 Y10.088 E0.0051
G1 X102.624 Y10.275 E0.0113
G1 X102.778 Y10.404 E0.0051
G1 X103.032 Y10.767 E0.0113
G1 X103.101 Y10.955 E0.0051
G1 X103.138 Y11.376 E0.0108
G1 X103.117 Y11.541 E0.0043
G1 X103.016 Y11.823 E0.0077
G1 X102.968 Y11.915 E0.0026
G1 X101.999 Y13.285 E0.0429
G1 X100.923 Y14.932 E0.0503
G1 X99.914 Y16.625 E0.0504
G1 X99.441 Y17.478 E0.0249
G1 X98.537 Y19.233 E0.0504
G1 X98.118 Y20.114 E0.0249
G1 X97.325 Y21.922 E0.0505
G1 X96.960 Y22.828 E0.0250
G1 X96.452 Y24.200 E0.0374
G1 X95.974 Y25.609 E0.0380
G1 X95.411 Y27.499 E0.0504
G1 X95.161 Y28.446 E0.0250
G1 X94.930 Y29.398 E0.0250
G1 X94.525 Y31.327 E0.0504
G1 X94.280 Y32.765 E0.0373
G1 X94.071 Y34.239 E0.0380
G1 X93.867 Y36.200 E0.0504
G1 X93.797 Y37.170 E0.0249
G1 X93.655 Y41.177 E0.1025
G1 X93.695 Y42.773 E0.0408
G1 X93.745 Y43.562 E0.0202
G1 X93.859 Y44.744 E0.0304
G1 X94.016 Y45.946 E0.0310
G1 X94.144 Y46.726 E0.0202
G1 X94.464 Y48.294 E0.0409
G1 X94.862 Y49.844 E0.0409
G1 X95.086 Y50.600 E0.0201
G1 X95.602 Y52.120 E0.0410
G1 X95.883 Y52.857 E0.0202
G1 X96.509 Y54.330 E0.0409
G1 X97.339 Y56.040 E0.0486
G1 X97.371 Y56.135 E0.0026
G1 X97.421 Y56.395 E0.0068
G1 X97.424 Y56.519 E0.0032
G1 X97.389 Y56.786 E0.0069
G1 X97.336 Y56.936 E0.0041
G1 X97.159 Y57.225 E0.0086
G1 X96.970 Y57.385 E0.0063
G1 X96.614 Y57.527 E0.0098
G1 X96.471 Y57.555 E0.0037
G1 X84.512 Y57.555 E0.3056
G1 X84.412 Y57.542 E0.0026
G1 X84.123 Y57.464 E0.0077
G1 X83.929 Y57.342 E0.0059
G1 X83.685 Y57.059 E0.0095
G1 X83.599 Y56.885 E0.0050
G1 X83.537 Y56.585 E0.0078
G1 X83.536 Y56.433 E0.0039
G1 X83.598 Y56.109 E0.0084
G1 X83.632 Y56.010 E0.0027
G1 X84.109 Y55.056 E0.0272
G1 X84.772 Y53.599 E0.0409
G1 X85.360 Y52.116 E0.0408
G1 X85.874 Y50.600 E0.0409
G1 X86.098 Y49.844 E0.0201
G1 X86.496 Y48.294 E0.0409
G1 X86.816 Y46.726 E0.0409
G1 X86.945 Y45.943 E0.0203
G1 X87.054 Y45.157 E0.0203
G1 X87.215 Y43.560 E0.0410
G1 X87.265 Y42.773 E0.0201
G1 X87.305 Y41.177 E0.0408
G1 X87.163 Y37.170 E0.1025
G1 X87.093 Y36.200 E0.0249
G1 X86.889 Y34.236 E0.0504
G1 X86.758 Y33.269 E0.0249
G1 X86.434 Y31.326 E0.0503
G1 X86.030 Y29.398 E0.0503
G1 X85.799 Y28.446 E0.0250
G1 X85.549 Y27.499 E0.0250
G1 X84.986 Y25.607 E0.0505
G1 X84.678 Y24.681 E0.0249
G1 X84.000 Y22.830 E0.0504
G1 X83.446 Y21.480 E0.0373
G1 X82.844 Y20.119 E0.0380
G1 X81.980 Y18.351 E0.0503
G1 X81.044 Y16.622 E0.0502
G1 X80.037 Y14.932 E0.0503
G1 X78.961 Y13.285 E0.0503
G1 X78.028 Y11.967 E0.0413
G1 X77.990 Y11.898 E0.0020
G1 X77.858 Y11.596 E0.0084
G1 X77.826 Y11.442 E0.0040
G1 X77.826 Y11.135 E0.0079
G1 E-1.0000 F1602
G1 X107.756 Y11.135 F3102
G1 E1.0000 F1602
G1 X107.779 Y11.003 E0.0034 F1680
G1 X107.880 Y10.725 E0.0076
G1 X107.947 Y10.609 E0.0034
G1 X108.137 Y10.383 E0.0076
G1 X108.240 Y10.297 E0.0034
G1 X108.496 Y10.149 E0.0076
G1 X108.621 Y10.103 E0.0034
G1 X108.913 Y10.052 E0.0076
G1 X109.046 Y10.052 E0.0034
G1 X109.355 Y10.106 E0.0080
G1 X109.510 Y10.170 E0.0043
G1 X109.831 Y10.396 E0.0100
G1 X109.923 Y10.488 E0.0033
G1 X110.888 Y11.843 E0.0425
G1 X110.895 Y11.853 E0.0003
G1 X112.132 Y13.713 E0.0571
G1 X112.139 Y13.725 E0.0004
G1 X113.305 Y15.632 E0.0571
G1 X113.312 Y15.644 E0.0004
G1 X114.405 Y17.593 E0.0571
G1 X114.412 Y17.606 E0.0004
G1 X115.430 Y19.595 E0.0571
G1 X115.437 Y19.608 E0.0004
G1 X116.378 Y21.633 E0.0571
G1 X116.383 Y21.643 E0.0003
G1 X116.826 Y22.672 E0.0286
G1 X116.830 Y22.682 E0.0003
G1 X117.655 Y24.757 E0.0571
G1 X117.660 Y24.770 E0.0004
G1 X118.407 Y26.877 E0.0571
G1 X118.412 Y26.890 E0.0004
G1 X119.078 Y29.023 E0.0571
G1 X119.082 Y29.037 E0.0004
G1 X119.667 Y31.194 E0.0571
G1 X119.671 Y31.208 E0.0004
G1 X120.174 Y33.385 E0.0571
G1 X120.177 Y33.399 E0.0004
G1 X120.410 Y34.614 E0.0316
G1 X120.642 Y33.399 E0.0316
G1 X120.645 Y33.385 E0.0004
G1 X121.148 Y31.210 E0.0571
G1 X121.151 Y31.199 E0.0003
G1 X121.434 Y30.114 E0.0286
G1 X121.437 Y30.104 E0.0003
G1 X122.062 Y27.961 E0.0571
G1 X122.067 Y27.947 E0.0004
G1 X122.773 Y25.827 E0.0571
G1 X122.778 Y25.813 E0.0004
G1 X123.564 Y23.722 E0.0571
G1 X123.570 Y23.708 E0.0004
G1 X124.435 Y21.648 E0.0571
G1 X124.440 Y21.634 E0.0004
G1 X125.383 Y19.608 E0.0571
G1 X125.389 Y19.595 E0.0004
G1 X126.407 Y17.606 E0.0571
G1 X126.414 Y17.593 E0.0004
G1 X127.507 Y15.644 E0.0571
G1 X127.514 Y15.632 E0.0004
G1 X128.680 Y13.725 E0.0571
G1 X128.688 Y13.713 E0.0004
G1 X129.924 Y11.853 E0.0571
G1 X129.931 Y11.843 E0.0003
G1 X130.898 Y10.486 E0.0426
G1 X130.990 Y10.394 E0.0033
G1 X131.324 Y10.160 E0.0104
G1 X131.513 Y10.091 E0.0051
G1 X131.954 Y10.053 E0.0113
G1 X132.152 Y10.088 E0.0051
G1 X132.554 Y10.275 E0.0113
G1 X132.708 Y10.404 E0.0051
G1 X132.962 Y10.767 E0.0113
G1 X133.030 Y10.955 E0.0051
G1 X133.068 Y11.376 E0.0108
G1 X133.047 Y11.541 E0.0043
G1 X132.945 Y11.823 E0.0077
G1 X132.898 Y11.915 E0.0026
G1 X131.929 Y13.285 E0.0429
G1 X130.850 Y14.936 E0.0504
G1 X130.342 Y15.768 E0.0249
G1 X129.367 Y17.485 E0.0505
G1 X128.911 Y18.348 E0.0249
G1 X128.044 Y20.121 E0.0504
G1 X127.643 Y21.011 E0.0249
G1 X126.889 Y22.832 E0.0504
G1 X126.382 Y24.200 E0.0373
G1 X125.903 Y25.609 E0.0380
G1 X125.341 Y27.499 E0.0504
G1 X125.090 Y28.445 E0.0250
G1 X124.860 Y29.398 E0.0250
G1 X124.455 Y31.327 E0.0504
G1 X124.210 Y32.765 E0.0373
G1 X124.000 Y34.239 E0.0380
G1 X123.797 Y36.200 E0.0504
G1 X123.726 Y37.170 E0.0249
G1 X123.585 Y41.177 E0.1025
G1 X123.625 Y42.773 E0.0408
G1 X123.674 Y43.562 E0.0202
G1 X123.788 Y44.744 E0.0304
G1 X123.945 Y45.946 E0.0310
G1 X124.074 Y46.726 E0.0202
G1 X124.393 Y48.294 E0.0409
G1 X124.791 Y49.844 E0.0409
G1 X125.016 Y50.600 E0.0201
G1 X125.531 Y52.120 E0.0410
G1 X125.812 Y52.857 E0.0201
G1 X126.439 Y54.330 E0.0409
G1 X127.269 Y56.040 E0.0486
G1 X127.300 Y56.135 E0.0026
G1 X127.350 Y56.395 E0.0068
G1 X127.354 Y56.519 E0.0032
G1 X127.318 Y56.786 E0.0069
G1 X127.265 Y56.936 E0.0041
G1 X127.089 Y57.225 E0.0087
G1 X126.900 Y57.385 E0.0063
G1 X126.544 Y57.527 E0.0098
G1 X126.400 Y57.555 E0.0037
G1 X114.442 Y57.555 E0.3056
G1 X114.342 Y57.542 E0.0026
G1 X114.053 Y57.464 E0.0077
G1 X113.858 Y57.342 E0.0059
G1 X113.615 Y57.059 E0.0095
G1 X113.529 Y56.885 E0.0050
G1 X113.466 Y56.585 E0.0078
G1 X113.465 Y56.433 E0.0039
G1 X113.528 Y56.109 E0.0084
G1 X113.562 Y56.010 E0.0027
G1 X114.039 Y55.056 E0.0272
G1 X114.702 Y53.600 E0.0409
G1 X115.290 Y52.116 E0.0408
G1 X115.803 Y50.600 E0.0409
G1 X116.028 Y49.844 E0.0201
G1 X116.426 Y48.294 E0.0409
G1 X116.746 Y46.726 E0.0409
G1 X116.874 Y45.948 E0.0201
G1 X117.075 Y44.355 E0.0410
G1 X117.145 Y43.565 E0.0203
G1 X117.195 Y42.773 E0.0203
G1 X117.235 Y41.177 E0.0408
G1 X117.093 Y37.170 E0.1025
G1 X117.022 Y36.200 E0.0249
G1 X116.819 Y34.240 E0.0503
G1 X116.535 Y32.290 E0.0504
G1 X116.365 Y31.330 E0.0249
G1 X115.959 Y29.398 E0.0505
G1 X115.729 Y28.446 E0.0250
G1 X115.479 Y27.499 E0.0250
G1 X114.915 Y25.607 E0.0505
G1 X114.608 Y24.681 E0.0249
G1 X113.930 Y22.830 E0.0504
G1 X113.376 Y21.480 E0.0373
G1 X112.774 Y20.119 E0.0380
G1 X111.910 Y18.351 E0.0503
G1 X110.974 Y16.622 E0.0502
G1 X109.967 Y14.932 E0.0503
G1 X108.891 Y13.285 E0.0503
G1 X107.958 Y11.967 E0.0413
G1 X107.919 Y11.898 E0.0020
G1 X107.788 Y11.596 E0.0084
G1 X107.756 Y11.442 E0.0040
G1 X107.756 Y11.135 E0.0079
G1 E-1.0000 F1602
G1 X137.685 Y11.135 F3102
G1 E1.0000 F1602
G1 X137.709 Y11.003 E0.0034 F1680
G1 X137.810 Y10.725 E0.0076
G1 X137.877 Y10.609 E0.0034
G1 X138.067 Y10.383 E0.0076
G1 X138.169 Y10.297 E0.0034
G1 X138.425 Y10.149 E0.0076
G1 X138.551 Y10.103 E0.0034
G1 X138.842 Y10.052 E0.0076
G1 X138.976 Y10.052 E0.0034
G1 X139.284 Y10.106 E0.0080
G1 X139.439 Y10.170 E0.0043
G1 X139.760 Y10.396 E0.0100
G1 X139.853 Y10.488 E0.0033
G1 X140.818 Y11.843 E0.0425
G1 X140.825 Y11.853 E0.0003
G1 X142.061 Y13.713 E0.0571
G1 X142.069 Y13.725 E0.0004
G1 X143.235 Y15.632 E0.0571
G1 X143.242 Y15.644 E0.0004
G1 X144.335 Y17.593 E0.0571
G1 X144.342 Y17.606 E0.0004
G1 X145.360 Y19.595 E0.0571
G1 X145.366 Y19.608 E0.0004
G1 X146.308 Y21.633 E0.0571
